X:277
T:Quaker, The
R:polka 32
M:4/4
L:1/8
K:G
|:B2B2AG FE|E2D2D2DE|F2F2FE DF|A2G2G4|
d2ed c2B2|A2E2E2c2|BA GF E2F2|G4G4:|
|:
K:D
A2A2B2B2|AG FG A4|GF EF G2G2|FE DE F4|
A2A2B2B2|AG FG A4|GF EF GA Bc|[1d8:|[2d4=c4|]

